X: 1
T: New Year Jig
T: 8x32J 3C (RSCDS Bk 51)
P: Maureen Robson's Jig
C: Arr. T. Traub 8-12-2017
R: jig
M: 6/8
L: 1/8
K: D
|: f|"D"a2 d dcd| "Em"eBe "A"dcB|"D"A2 d dcd|"E7"f3 "A"e2 f|"D"a2 d dcd|"G"dcB "D"AFA|"Em"DFA "A"GEC|"D"D3 D2 :|
|: A|"D"d2 f fgf|"G"e2 d Bcd|"Em"e2 f gfe|"A"c3 c2 A|"D"def edc|"G"BAG "D"FGA|"Em"e2 d "A"cBA |"D"d3 D2 :|
